icons-dark/places/32/folder-temp.svg

<svg height="32" viewBox="0 0 32 32" width="32" xmlns="http://www.w3.org/2000/svg" xmlns:xlink="http://www.w3.org/1999/xlink">
    <linearGradient id="a" gradientUnits="userSpaceOnUse" x2="0" y1="29" y2="8">
        <stop offset="0" stop-color="#3daee9"/>
        <stop offset="1" stop-color="#6cc1ef"/>
    </linearGradient>
    <g transform="translate(-384.571436 -515.798)">
        <path d="m386.57144 518.798v7 1h28v-6h-14.00001l-2-2z" fill="#147eb8" fill-rule="evenodd"/>
        <path d="m397.57143 523.798-1.99999 1h-9v1h6.99999 3z" fill-opacity=".235294" fill-rule="evenodd"/>
        <path d="m13 8-2 2h-9-1v19h11 1 18v-21z" fill="url(#a)" transform="translate(384.57143 515.798)"/>
        <g fill-opacity=".235294">
            <path d="m397.57143 523.798-2 2h-10v1h11z" fill="#fff" fill-rule="evenodd"/>
            <path d="m398.57143 518.798 1 3h15.00001v-1h-14.00001z" fill="#fff" fill-rule="evenodd"/>
            <path d="m385.57144 543.79797h30v1h-30z"/>
        </g>
    </g>
    <path d="m16 13c-2.761424 0-5 2.238576-5 5s2.238576 5 5 5 5-2.238576 5-5-2.238576-5-5-5zm0 1c2.209139 0 4 1.790861 4 4s-1.790861 4-4 4-4-1.790861-4-4 1.790861-4 4-4zm-1 1v3 1h4v-1h-3v-3z" fill="#1272a5"/>
</svg>

<?xml version="1.0" encoding="UTF-8" standalone="no"?>

<!-- Created with Inkscape (http://www.inkscape.org/) -->
<svg width="32" version="1.1" xmlns="http://www.w3.org/2000/svg" height="32" viewBox="0 0 32 32" xmlns:xlink="http://www.w3.org/1999/xlink" xmlns:inkscape="http://www.inkscape.org/namespaces/inkscape">
 <defs id="defs5455">
  <linearGradient inkscape:collect="always" id="linearGradient4172-5">
   <stop style="stop-color:#3daee9" id="stop4174-6"/>
   <stop offset="1" style="stop-color:#6cc1ef" id="stop4176-6"/>
  </linearGradient>
  <linearGradient inkscape:collect="always" id="linearGradient4342" xlink:href="#linearGradient4172-5" y1="29" y2="8" gradientUnits="userSpaceOnUse" x2="0"/>
 </defs>
 <metadata id="metadata5458"/>
 <g inkscape:label="Capa 1" inkscape:groupmode="layer" id="layer1" transform="matrix(1 0 0 1 -384.57143 -515.798)">
  <g inkscape:label="Capa 1" id="layer1-6" transform="matrix(1 0 0 1 -0.000006 0)">
   <path inkscape:connector-curvature="0" style="fill:#147eb8;fill-rule:evenodd" id="path4308" d="m 386.57144,518.798 0,7 0,1 28,0 0,-6 -14.00001,0 -2,-2 z"/>
   <path inkscape:connector-curvature="0" style="fill-opacity:0.235294;fill-rule:evenodd" id="path4306" d="m 397.57143,523.798 -1.99999,1 -9,0 0,1 6.99999,0 3,0 z"/>
   <path inkscape:connector-curvature="0" style="fill:url(#linearGradient4342)" id="rect4294" d="m 13,8 -2,2 -9,0 -1,0 0,19 11,0 1,0 18,0 0,-21 -18,0 z" transform="matrix(1 0 0 1 384.57143 515.798)"/>
   <path inkscape:connector-curvature="0" style="fill:#ffffff;fill-opacity:0.235294;fill-rule:evenodd" id="path4304" d="m 397.57143,523.798 -2,2 -10,0 0,1 11,0 z"/>
   <path inkscape:connector-curvature="0" style="fill:#ffffff;fill-opacity:0.235294;fill-rule:evenodd" id="path4310" d="m 398.57143,518.798 1,3 15.00001,0 0,-1 -14.00001,0 z"/>
   <rect width="30" x="385.57144" y="543.79797" height="1" style="fill-opacity:0.235294" id="rect4292"/>
  </g>
  <path style="fill:#1272a5" id="path4183" d="M 16 13 A 5 5 0 0 0 11 18 A 5 5 0 0 0 16 23 A 5 5 0 0 0 21 18 A 5 5 0 0 0 16 13 z M 16 14 A 4 4 0 0 1 20 18 A 4 4 0 0 1 16 22 A 4 4 0 0 1 12 18 A 4 4 0 0 1 16 14 z M 15 15 L 15 18 L 15 19 L 17 19 L 17 18 L 16 18 L 16 15 L 15 15 z " transform="matrix(1 0 0 1 384.57143 515.798)"/>
 </g>
</svg>
